!!!OTL: Der Nachtjaeger Es stot es Lindeli in einem Tal,
!!!ARE: Europa, Mitteleuropa, Schweiz, Aargau
!!!YOR: 6, S. 188
!!    1911 gedruckt in Basel
!!!SCT: Q0133H
!!!YEM: Copyright 1995, estate of Helmut Schaffrath.
**kern
*ICvox
*Ivox
*M4/4
*k[b-]
*F:
{4f
=1
4.a
8g
8.f
16a
8a
8cc
=2
8cc
8a
8cc
8a
4g
8r}
{16f
16g
=3
4a
8a
8cc
8.b-
16b-
8b-
8dd
=4
4cc
8cc
8b-
4a
8r}
{8a
=5
4cc
4cc
8cc
8b-
8b-
8g
=6
4a
4cc
4g
4b-
=7
2a
4r}
==
!!!AGN: Ballade, Jagd, Flucht, Vergewaltigung, Tod
!!!ONB: ESAC (Essen Associative Code) Database: BALLADE
!!!AMT: simple quadruple
!!!AIN: vox
!!!EED: Helmut Schaffrath
!!!EEV: 1.0
*-
